React/src/assets/images/frontend/html.svg

<svg width="130" height="130" viewBox="0 0 130 130" fill="none" xmlns="http://www.w3.org/2000/svg">
<path d="M65 95.1167L87.0459 88.9958L90.025 55.9542H50.8084L49.8334 44.9583H91L92.0834 34.1792H37.9167L40.95 66.7333H78.2709L77.025 80.7083L65 83.9583L52.975 80.7083L52.2167 71.7167H41.3834L42.9542 88.9958L65 95.1167V95.1167ZM22.0459 16.25H107.954L100.208 104L65 113.75L29.7917 104L22.0459 16.25V16.25Z" fill="#E44D26"/>
</svg>

<svg width="130" height="130" fill="none" xmlns="http://www.w3.org/2000/svg"><path d="M65 95.117l22.046-6.121 2.979-33.042H50.808l-.975-10.996H91l1.083-10.779H37.917l3.033 32.554h37.32l-1.245 13.975L65 83.958l-12.025-3.25-.758-8.991H41.383l1.571 17.279L65 95.116zM22.046 16.25h85.908L100.208 104 65 113.75 29.792 104l-7.746-87.75z" fill="#E44D26"/></svg>
